X: 252
T: Ach Gott, vom Himmel seih darein / 253. Ach Gott, vom Himmel seih darein / Cantata BWV 77: Du sollst Gott, deinen Herren, lieben
N: Derived from chor253.krn
C: Johann Sebastian Bach
%%abc-version 2.0
%%abcx-abcm2ps-target-version 5.9.1 (29 Sep 2008)
%%abc-creator hum2abc beta
%%abcx-conversion-date 2019/03/11 17:28:19
%%abc-edited-by Craig Stuart Sapp
%%humdrum-veritas 959962464
%%humdrum-veritas-data 2410912449
%%
%%barnumbers 0
L: 1/4
M: C
%%staves [1 2 3 4]
V: 1 clef=treble
V: 2 clef=treble
V: 3 clef=treble-8
V: 4 clef=bass
K: Bb
[V:1] A [I:setbarnb 1]| 
[V:2] =E | 
[V:3] ^c | 
[V:4] A, | 
[V:1] BAGd | 
[V:2] ^F/GF/ G/A/B | 
[V:3] dddd | 
[V:4] D,D/=C/B,A,/G,/ | 
[V:1] d/c/B!fermata!A2 | 
[V:2] A3/G/!fermata!^F2 | 
[V:3] dd!fermata!d2 | 
[V:4] ^F,G,!fermata!D,2 | 
[V:1] zcBA | 
[V:2] x^FG=F | 
[V:3] xddd/c/ | 
[V:4] zA,,B,,/C,/D, | 
[V:1] GA/B//c//BA | 
[V:2] E/F/GG^F | 
[V:3] Bed3/c/ | 
[V:4] E,D,/C,/D,2 | 
[V:1] !fermata!G3A | 
[V:2] !fermata!D3^F | 
[V:3] !fermata!B3d | 
[V:4] !fermata!G,,3D, | 
[V:1] BAGd | 
[V:2] G^FG/A/B | 
[V:3] dddd | 
[V:4] G,D/C/B,A,/G,/ | 
[V:1] d/c/B!fermata!A2 | 
[V:2] A3/G/!fermata!^F2 | 
[V:3] dd!fermata!d2 | 
[V:4] ^F,G,!fermata!D,2 | 
[V:1] zcBA | 
[V:2] x^FG=F | 
[V:3] xddd/c/ | 
[V:4] zA,,B,,/C,/D, | 
[V:1] GA/B//c//BA | 
[V:2] E/F/GG^F | 
[V:3] B_ed3/c/ | 
[V:4] E,D,/C,/D,2 | 
[V:1] !fermata!G3G | 
[V:2] !fermata!D3D | 
[V:3] !fermata!B3B | 
[V:4] !fermata!G,,3G, | 
[V:1] AF=ED/E/ | 
[V:2] =ED^CD | 
[V:3] AAA/G/ F/G/ | 
[V:4] ^C,D,A,,B,, | 
[V:1] FG!fermata!A2 | 
[V:2] =CD/=E/!fermata!F2 | 
[V:3] AB!fermata!c2 | 
[V:4] A,,G,,!fermata!F,,2 | 
[V:1] zAGB | 
[V:2] xFF/_E/ D/G/- | 
[V:3] xccB3//c// | 
[V:4] zF,,C,G,, | 
[V:1] ABG^F | 
[V:2] G/^F/GG/C/D | 
[V:3] dd/c/ B/A//G//A | 
[V:4] D,B,,_E,D, | 
[V:1] !fermata!G3G | 
[V:2] !fermata!D3D | 
[V:3] !fermata!B3B | 
[V:4] !fermata!G,,3G, | 
[V:1] dBcd | 
[V:2] DG=FF/G/ | 
[V:3] AdcB | 
[V:4] ^F,G,A,B, | 
[V:1] cB!fermata!A |]  
[V:2] AG!fermata!D |]  
[V:3] _e=e!fermata!^f |]  
[V:4] C^C!fermata!D |]  



